!!!!SEGMENT: pl-kk--kk-i-382--024-001_anonim--nro-9-kyrie.krn
!!!cenid: 18xx:1500
!!!COM: Anonim
!!!COM-rismid: pe30004985
!!!CDT:
!!!CNT:
!!!OTL: Nro 9 Kyrie
!!!PDT:
!!!AGN: Sacred
!!!SMS-siglum: PL-Kk
!!!SMS-shelfmark: Kk.I.382
!!!SMS-shelfwork: 024-001
!!!SMS-variant:
!!!SMS-altvar:
!!!NIFC-rismid: 1001139153
!!!URL-scan: http://repozytorium.nifc.pl/skany/pl-kk-nut--i-382
!!!ONB-nifc: UWAGA: obsada: S (T 1), A (B 1), T 2, B 2; S (T 1): skan 0023; A (B 1): skan 0170; T 2: skan 0095; B 2: skan 0241-0242
**kern	**text	**kern	**text	**kern	**text	**kern	**text
*part4	*part4	*part3	*part3	*part2	*part2	*part1	*part1
*staff4	*staff4	*staff3	*staff3	*staff2	*staff2	*staff1	*staff1
*I"Basso II	*	*I"Tenore II	*	*I"Alto vel Basso I	*	*I"Soprano vel Tenore I.	*
*I'B 2	*	*I'T 2	*	*I'A (B 1)	*	*I'S (T 1)	*
*clefF4	*	*clefC4	*	*clefC3	*	*clefC1	*
*k[b-]	*	*k[b-]	*	*k[b-]	*	*k[b-]	*
*M4/4	*	*M4/4	*	*M4/4	*	*M4/4	*
*met(C.)	*	*met(C.)	*	*met(C.)	*	*met(C.)	*
=1	=1	=1	=1	=1	=1	=1	=1
*2\right	*	*2\right	*	*2\right	*	*2\right	*
!LO:TX:t=P:problem:all\right:global	!	!LO:TX:t=P:problem:all\right:global	!	!LO:TX:t=P:problem:all\right:global	!	!LO:TX:t=P:problem:all\right:global	!
!LO:TX:a:t=P:problem:w źródle ta adnotacja zapisana przed pierwszym taktem, na pięciolinii i częściowo przed pięciolinią	!	!LO:TX:a:t=P:problem:w źródle ta adnotacja zapisana przed pierwszym taktem, na pięciolinii	!	!LO:TX:a:t=P:problem:w źródle ta adnotacja zapisana przed pierwszym taktem, na pięciolinii	!	!LO:TX:a:t=P:problem:w źródle ta adnotacja zapisana przed pierwszym taktem, na pięciolinii i częściowo przed pięciolinią	!
!LO:TX:a:i:t=Nro 9. Kyrye	!	!LO:TX:a:i:t=Nro. 9. Kyrie	!	!LO:TX:a:i:t=Nro 9. Kyrie	!	!LO:TX:a:i:t=Nro 9. Kyrie	!
4.F\	Ky-	4.A\	Ky-	4.c/	Ky-	4.ff\	Ky-
8F\	-ri-	8G\	-ri-	8B-/	-ri-	8cc\	-ri-
!	!	!	!	!LO:TX:t=P:problem:mixed beam	!	!	!
4A\	-e	(<8F/L	-e	(>8A/L	-e	4cc\	-e
.	.	8A/J)	.	8f\J)	.	.	.
4F\	e-	(>8c\L	e-	(>8a\L	e-	4cc\	e-
.	.	8A\J)	.	8f\J)	.	.	.
=2	=2	=2	=2	=2	=2	=2	=2
4c\	-lei-	4A/	-lei-	4f\	-lei-	4cc\	-lei-
4C/	-son	4G/	-son	4e\	-son	4cc\	-son
4r	.	4r	.	4r	.	4r	.
4F\	e-	(>8A\L	e-	(>8f\L	e-	(>8cc\L	e-
.	.	8B-\J)	.	8d\J)	.	8ee\J)	.
!	!	!LO:LB:g=original	!	!	!	!	!
=3	=3	=3	=3	=3	=3	=3	=3
(>4F\	-le-	(>8B-\L	-lei-	(>8d\L	-lei-	4ff\	-lei-
.	.	8A\J)	.	8c\J)	.	.	.
4BB-/)	.	8G/	-son	8B-/	-son	8cc\	-son
.	.	8F/	e-	8A/	e-	8cc\	e-
!	!	!	!	!	!	!LO:LB:g=original	!
(<4BB-/	-i-	(<8A/L	-le-	(<8c/L	-le-	2cc\	-lei-
.	.	8G/J)	.	8B-/J)	.	.	.
4C/)	.	(<8F/L	-i-	(<8A/L	-i-	.	.
.	.	8E/J)	.	8G/J)	.	.	.
!	!	!	!	!LO:LB:g=original	!	!	!
=4	=4	=4	=4	=4	=4	=4	=4
2F\	-son	2F/	-son	2A/	-son	2cc\	-son
8r	.	8r	.	8r	.	4r	.
(>8F\L	e-	(>8A\L	e-	(>8f\L	e-	.	.
8A\	.	8c\	.	8a\	.	8r	.
8F\J)	.	8A\J)	.	8f\J)	.	8cc\	e-
!LO:LB:g=original	!	!	!	!	!	!	!
=5	=5	=5	=5	=5	=5	=5	=5
4c\	-lei-	4A/	-lei-	4f\	-lei-	4cc\	-lei-
4C/	-son	4.G/	-son	4.e\	-son	4cc\	-son
8r	.	.	.	.	.	4r	.
!LO:TX:t=P:problem:mixed beam	!	!	!	!	!	!	!
(>8G\L	e-	(>8B-\L	e-	(>8g\L	e-	.	.
8B-\	.	8d\	.	8b-\	.	8r	.
8C/J)	.	8B-\J)	.	8g\J)	.	8ee\	e-
=6	=6	=6	=6	=6	=6	=6	=6
4C/	-lei-	4B-\	-lei-	4g\	-lei-	4cc\	-lei-
4F\	-son	4A\	-son	4f\	-son	4cc\	-son
2F\	e-	[>2c\	e-	2a\	e-	4r	.
.	.	.	.	.	.	4ff\	e-
!	!	!LO:LB:g=original	!	!	!	!	!
=7	=7	=7	=7	=7	=7	=7	=7
!	!	!LO:TX:t=P:problem:brak dokończenia ligatury	!	!	!	!	!
2F\	-le-	8c\L]	.	(>8a\L	-le-	2cc\	-le-
.	.	8B-\	.	8g\	.	.	.
.	.	8d\	.	8b-\	.	.	.
.	.	8c\J	.	8a\J)	.	.	.
(<4BB-/	-i-	(>8c\L	-le-	(>8a\L	.	2dd\	-i-
.	.	8B-\J)	.	8g\J)	.	.	.
4BBn/)	.	(>8B-\L	-i-	(>8g\L	-i-	.	.
.	.	8A\J)	.	8f\J)	.	.	.
=8	=8	=8	=8	=8	=8	=8	=8
2.C/	-son,	2G/	-son,	2e\	-son,	2cc\	-son,
.	.	2r	.	2r	.	2r	.
4r	.	.	.	.	.	.	.
!	!	!	!	!LO:LB:g=original	!	!LO:LB:g=original	!
=9	=9	=9	=9	=9	=9	=9	=9
2C/	Chri-	(>4.e\	Chri-	(>4.g\	Chri-	(>4.cc\	Chri-
.	.	8d\)	.	8f\)	.	8bn\)	.
4C/	-ste	4c\	-ste	4e\	-ste	4g\	-ste
4C/	e-	4e\	e-	4g\	e-	4cc\	e-
=10	=10	=10	=10	=10	=10	=10	=10
4G\	-lei-	(>8e\L	-lei-	(>8g\L	-lei-	(>8cc\L	-lei-
.	.	8d\J)	.	8f\J)	.	8dd\J)	.
4GG/	-son	4Bn\	son,	4d\	-son	4ff\	-son
!	!	!LO:TX:a:t=P:problem:w źródle ta adnotacja zapisana za taktem 10, na pięciolinii	!	!	!	!	!
!	!	!LO:TX:a:i:t=V&colon; S&colon;	!	!	!	!	!
2r	.	2r	.	2r	.	2r	.
!LO:LB:g=original	!	!LO:PB:g=original	!	!	!	!	!
=11	=11	=11	=11	=11	=11	=11	=11
(>4GG/	Chri-	(>4.d\	Chri-	(>4.f\	Chri-	(>4.bn\	Chri-
4G\)	.	.	.	.	.	.	.
.	.	8c\)	.	8e\)	.	8cc\)	.
4G\	-ste	4Bn\	-ste	4d\	-ste	4dd\	-ste
4G\	e-	4d\	e-	4f\	e-	4b\	e-
=12	=12	=12	=12	=12	=12	=12	=12
4c\	-le-	4.c\	-le-	4.e\	-le-	2g\	-lei-
4G\	-i-	.	.	.	.	.	.
.	.	8d\	-i-	8f\	-i-	.	.
4E\	-son	4e\	-son	4g\	-son	4g\	-son
4C/	e-	(>8c\L	e-	(>8e\L	e-	4g\	e-
.	.	8G\J)	.	8c\J)	.	.	.
=13	=13	=13	=13	=13	=13	=13	=13
2GG/	-le-	(<8G/L	-le-	(<8Bn/L	-le-	1g	-lei-
.	.	[<8A/)	.	8c/)	.	.	.
.	.	(<8A/]	.	(<8c/	.	.	.
.	.	8Bn/J)	.	8d/J)	.	.	.
!	!	!	!	!LO:LB:g=original	!	!	!
2G\	-i-	(>(>8B\L	-i-	(>8d\L	.	.	.
.	.	8c\)	.	8e\J)	.	.	.
.	.	(>8c\	.	(>8e\L	-i-	.	.
.	.	8d\J))	.	8f\J)	.	.	.
=14	=14	=14	=14	=14	=14	=14	=14
2G\	-son	2d\	-son	2f\	-son	2.bn\	-son
8r	.	8r	.	8r	.	.	.
(>8F\L	e-	(>8f\L	e-	(>8a\L	e-	.	.
8E\	.	8e\	.	8g\	.	4r	.
8D\J)	.	8d\J)	.	8f\J)	.	.	.
!	!	!	!	!	!	!LO:LB:g=original	!
=15	=15	=15	=15	=15	=15	=15	=15
(>4C\	-le-	(>8c\L	-le-	(>8e\L	-le-	(>4g\	e-
.	.	8e\	.	8g\	.	.	.
4F\)	.	8f\	.	8a\	.	4a\)	.
.	.	8d\J)	.	8f\J)	.	.	.
!	!	!LO:LB:g=original	!	!	!	!	!
(>4G\	-i-	(>4c\	-i-	(>4e\	-i-	2g\	-lei-
4GG/)	.	4Bn\)	.	4d\)	.	.	.
=16	=16	=16	=16	=16	=16	=16	=16
2C/	-son,	2c\	-son	2.e\	-son	2g\	-son
2r	.	2r	.	.	.	2r	.
.	.	.	.	4r	.	.	.
!LO:LB:g=original	!	!	!	!	!	!	!
=17	=17	=17	=17	=17	=17	=17	=17
!	!	!	!	!LO:TX:a:t=P:problem:w źródle takt rozpoczyna repetycyjna kreska taktowa ||:	!	!	!
4.F\	Ky-	4.A\	Ky-	4.f\	Ky-	4.cc\	Ky-
8F\	-ri-	8A\	-ri-	8c\	-ri-	8ff\	-ri-
4A\	-e	4A\	-e	4c\	-e	4ff\	-e
4F\	e-	(>8B-X\L	e-	(>8d\L	e-	4ff\	e-
.	.	8c\J)	.	8e-X\J)	.	.	.
=18	=18	=18	=18	=18	=18	=18	=18
4B-\	-le-	(>8d\L	-le-	(>8f\L	-le-	2ff\	-lei-
.	.	8B-\J)	.	8d\J)	.	.	.
4F\	-i-	(>8A\L	-i-	(>8c\L	-i-	.	.
.	.	8c\J)	.	8e-X\J)	.	.	.
!	!	!	!	!LO:LB:g=original	!	!	!
4BB-/	-son	4B-\	-son	4d\	-son	4ff\	-son
4r	.	4r	.	4r	.	4r	.
=19	=19	=19	=19	=19	=19	=19	=19
4.G\	Ky-	4.Bn\	Ky-	4.g\	Ky-	4.dd\	Ky-
8G\	-ri-	8B\	-ri-	8d\	-ri-	8gg\	-ri-
4Bn\	-e	4B\	-e	4d\	-e	4gg\	-e
4G\	e-	(>8c\L	e-	(>8en\L	e-	4gg\	e-
.	.	8d\J)	.	8f\J)	.	.	.
!	!	!	!	!	!	!LO:LB:g=original	!
=20	=20	=20	=20	=20	=20	=20	=20
4c\	-le-	(>8e\L	-le-	(>8g\L	-le-	2gg\	-lei-
.	.	8c\J)	.	8e\J)	.	.	.
4G\	-i-	(>8Bn\L	-i-	(>8d\L	-i-	.	.
.	.	8d\J)	.	8f\J)	.	.	.
4C/	-son,	4c\	-son	4e\	-son	4gg\	-son
!LO:TX:a:t=P:problem:w źródle ta adnotacja zapisana za taktem 20, na pięciolinii	!	!	!	!	!	!	!
!LO:TX:b:i:t=V&colon; S&colon;	!	!	!	!	!	!	!
4r	.	4r	.	4r	.	4r	.
!LO:PB:g=original	!	!LO:LB:g=original	!	!	!	!	!
=21	=21	=21	=21	=21	=21	=21	=21
4.C/	Ky-	4.G/	Ky-	4.e\	Ky-	4.ee\	Ky-
8C/	-ri-	8A/	-ri-	8f\	-ri-	8ee\	-ri-
4E\	-e	4B-X\	-e	4g\	-e	4ee\	-e
4C/	e-	4g\	e-	4b-X\	e-	4cc\	e-
=22	=22	=22	=22	=22	=22	=22	=22
4F\	-le-	4f\	-le-	4a\	-le-	2cc\	-lei-
4C/	-i-	4e\	-i-	4g\	-i-	.	.
4F\	-son	4c\	-son	4f\	-son	4a\	-son
4E\	e-	4e\	e-	4g\	e-	4cc\	e-
!	!	!	!	!LO:LB:g=original	!	!	!
=23	=23	=23	=23	=23	=23	=23	=23
(>4F\	-le-	(>4c\	-le-	(>4a\	-le-	(>4a\	-le-
4A\)	.	8d\L	.	8b-\L	.	4dd\)	.
.	.	8B-\J)	.	8g\J	.	.	.
(>4c\	-i-	(4A\	-i-	4f\)	.	2cc\	-i-
4C/)	.	8B-\L	.	(>8g\L	-i-	.	.
.	.	8G\J)	.	8e\J)	.	.	.
=24	=24	=24	=24	=24	=24	=24	=24
2F\	-son	2A\	-son	2.f\	-son.	2cc\	-son
2r	.	2r	.	.	.	2r	.
!	!	!	!	!LO:TX:a:t=P:problem:w źródle takt kończy repetycyjna kreska taktowa :||	!	!	!
.	.	.	.	4r	.	.	.
!	!	!	!	!	!	!LO:LB:g=original	!
=25	=25	=25	=25	=25	=25	=25	=25
!	!	!	!	!LO:TX:t=P:problem:tt.25-32 zapisane repetycją	!	!	!
4.F\	Ky-	4.A\	Ky-	4.f\yy	Ky-	4.cc\	Ky-
8F\	-ri-	8A\	-ri-	8c\yy	-ri-	8ff\	-ri-
4A\	-e	4A\	-e	4c\yy	-e	4ff\	-e
4F\	e-	(>8B-\L	e-	(>8d\Lyy	e-	4ff\	e-
.	.	8c\J)	.	8e-X\J)yy	.	.	.
!	!	!LO:LB:g=original	!	!	!	!	!
=26	=26	=26	=26	=26	=26	=26	=26
4B-\	-le-	(>8d\L	le-	(>8f\Lyy	-le-	2ff\	-lei-
.	.	8B-\J)	.	8d\J)yy	.	.	.
4F\	-i-	(>8A\L	-i-	(>8c\Lyy	-i-	.	.
.	.	8c\J)	.	8e-X\J)yy	.	.	.
4BB-/	-son,	4B-\	-son	4d\yy	-son	4ff\	-son
4r	.	4r	.	4ryy	.	4r	.
!LO:LB:g=original	!	!	!	!	!	!	!
=27	=27	=27	=27	=27	=27	=27	=27
4.G\	Ky-	4.Bn\	Ky-	4.g\yy	Ky-	4.dd\	Ky-
8G\	-ri-	8B\	-ri-	8d\yy	-ri-	8gg\	-ri-
4Bn\	-e	4B\	-e	4d\yy	-e	4gg\	-e
4G\	e-	(>8c\L	e-	(>8en\Lyy	e-	4gg\	e-
.	.	8d\J)	.	8f\J)yy	.	.	.
=28	=28	=28	=28	=28	=28	=28	=28
4c\	-le-	(>8e\L	-le-	(>8g\Lyy	-le-	2gg\	-lei-
.	.	8c\J)	.	8e\J)yy	.	.	.
4G\	-i-	(>8Bn\L	-i-	(>8d\Lyy	-i-	.	.
.	.	8d\J)	.	8f\J)yy	.	.	.
4C/	-son	4c\	-son	4e\yy	-son	4gg\	-son
4r	.	4r	.	4ryy	.	4r	.
!	!	!	!	!	!	!LO:LB:g=original	!
=29	=29	=29	=29	=29	=29	=29	=29
4.C/	Ky-	4.G/	Ky-	4.e\yy	Ky-	4.ee\	Ky-
8C/	-ri-	8A/	-ri-	8f\yy	-ri-	8ee\	-ri-
4E\	-e	4B-X\	-e	4g\yy	-e	4ee\	-e
4C/	e-	4g\	e-	4b-X\yy	e-	4cc\	e-
!	!	!LO:LB:g=original	!	!	!	!	!
=30	=30	=30	=30	=30	=30	=30	=30
4F\	-le-	4f\	-le-	4a\yy	-le-	2cc\	-lei-
4C/	-i-	4e\	-i-	4g\yy	-i-	.	.
4F\	-son	4c\	-son	4f\yy	-son	4a\	-son
4E\	e-	4e\	e-	4g\yy	e-	4cc\	e-
=31	=31	=31	=31	=31	=31	=31	=31
(>4F\	-le-	(>4c\	-le-	(>4a\yy	-le-	(>4a\	-le-
4A\)	.	8d\L	.	8b-\Lyy	.	4dd\)	.
.	.	8B-X\J)	.	8g\Jyy	.	.	.
(>4c\	-i-	(>4A\	-i-	4f\)yy	.	2cc\	-i-
4C/)	.	8B-\L	.	(>8g\Lyy	-i-	.	.
.	.	8G\J)	.	8e\J)yy	.	.	.
=32	=32	=32	=32	=32	=32	=32	=32
!	!	!	!	!	!	!LO:TX:a:t=P:problem:w źródle ta adnotacja zapisana na pustej, poniższej pięciolinii	!
!	!	!	!	!	!	!LO:TX:b:i:t=Seque Gloria V&colon; S&colon;	!
1F	-son	1A	-son.	2.f\yy	-son.	1cc	-son.
.	.	.	.	4ryy	.	.	.
!	!	!	!	!LO:TX:a:t=P:problem:w źródle ta adnotacja zapisana na pięciolinii	!	!	!
!	!	!	!	!LO:TX:b:i:t=Seque Gloria V&colon; S&colon;	!	!	!
==	==	==	==	==	==	==	==
*-	*-	*-	*-	*-	*-	*-	*-
!!!system-decoration: [(s1,s2,s3,s4)]
!!!RDF**kern: > = above
!!!RDF**kern: < = below
!!!EED: Antoni Szymański
!!!EST: 2021-02-04
!!!ENC: Krzysztof Stępień
!!!END: 2021-01-29
